icons/outline/password-mobile-phone.svg

<!--
tags: [authentication, secure, credentials, login, unlock, protection, digital, access, identity, device]
category: System
version: "2.34"
unicode: "fc7c"
-->
<svg
  xmlns="http://www.w3.org/2000/svg"
  width="24"
  height="24"
  viewBox="0 0 24 24"
  fill="none"
  stroke="currentColor"
  stroke-width="2"
  stroke-linecap="round"
  stroke-linejoin="round"
>
  <path d="M12 17v4m-2 -1l4 -2m-4 0l4 2m-9 -3v4m-2 -1l4 -2m-4 0l4 2m12 -3v4m-2 -1l4 -2m-4 0l4 2m-14 -6v-8a2 2 0 0 1 2 -2h6a2 2 0 0 1 2 2v8m-6 -9h2m-1 12v.01" />
</svg>

<!--
tags: [authentication, secure, credentials, login, unlock, protection, digital, access, identity, device]
category: System
version: "2.34"
unicode: "fc7c"
-->
<svg
  xmlns="http://www.w3.org/2000/svg"
  width="24"
  height="24"
  viewBox="0 0 24 24"
  fill="none"
  stroke="currentColor"
  stroke-width="2"
  stroke-linecap="round"
  stroke-linejoin="round"
>
    <path d="M12 17v4M10 20l4 -2M10 18l4 2M5 17v4M3 20l4 -2M3 18l4 2M19 17v4M17 20l4 -2M17 18l4 2M7 14v-8a2 2 0 0 1 2 -2h6a2 2 0 0 1 2 2v8M11 5h2M12 17v.01" />
</svg>
